X:4269
T:Miss Monaghan
O:england
M:4/4
L:1/8
Q:220
S:From Tony Murphy
K:D
D2 FD FA A2|B3 A FABc|d3 B ABde|fede fe e2|
D2 FD FA A2|B3 A FABc|dedB ABdB|AFEG FD D:|
faab afdf|gefd edBc|dedB ABde|fede fe e2|
faab afdf|gefd edBc|dedB ABdB|AFEG FD D:|


